assets/icons/standard/case_wrap_up.svg

<svg xmlns="http://www.w3.org/2000/svg" width="100" height="100" viewBox="0 0 100 100"><path d="M37.2,30.1h4a.94.94,0,0,0,1-1v-3H58v3a.94.94,0,0,0,1,1h4a.94.94,0,0,0,1-1v-3a6,6,0,0,0-6-6H42.2a6,6,0,0,0-6,6v3A.94.94,0,0,0,37.2,30.1Z" fill="#fff"/><path d="M74,36.1H26.2a6,6,0,0,0-6,6V73.9a6,6,0,0,0,6,6H74a6,6,0,0,0,6-6V42.1A6.15,6.15,0,0,0,74,36.1ZM65.3,52.2,47.9,69.6a3.38,3.38,0,0,1-4.8,0l-8.4-8.4a1.63,1.63,0,0,1,0-2.4l2.4-2.4a1.63,1.63,0,0,1,2.4,0l6,6,15-15a1.63,1.63,0,0,1,2.4,0l2.4,2.4A1.82,1.82,0,0,1,65.3,52.2Z" fill="#fff"/></svg>

<?xml version="1.0"?><svg xmlns="http://www.w3.org/2000/svg" width="100" height="100" viewBox="0 0 100 100"><title></title><path d="m37.2 30.1h4a0.9 0.9 0 0 0 1-1v-3h15.8v3a0.9 0.9 0 0 0 1 1h4a0.9 0.9 0 0 0 1-1v-3a6 6 0 0 0-6-6h-15.8a6 6 0 0 0-6 6v3a0.9 0.9 0 0 0 1 1z m36.8 6h-47.8a6 6 0 0 0-6 6v31.8a6 6 0 0 0 6 6h47.8a6 6 0 0 0 6-6v-31.8a6.2 6.2 0 0 0-6-6z m-8.7 16.1l-17.4 17.4a3.4 3.4 0 0 1-4.8 0l-8.4-8.4a1.6 1.6 0 0 1 0-2.4l2.4-2.4a1.6 1.6 0 0 1 2.4 0l6 6 15-15a1.6 1.6 0 0 1 2.4 0l2.4 2.4a1.8 1.8 0 0 1 0 2.4z" fill="#fff"></path></svg>
